X: 100343
T: COLIN McKAY'S REEL
R: reel
B: K\"ohler's Violin Repository, v.3, 1885 p.237 #3
F: http://www.archive.org/details/klersviolinrepos03rugg
Z: 2012 John Chambers <jc:trillian.mit.edu>
N: The 'c' in McKay looks more like a reverse apostrophe.
M: C|
L: 1/8
K: C
ue |\
c2CE G3(_B | AG)EC DE_B,D | (C/D/E/F/) (GE) G2(cG) | cagf ecc :|
ue |\
(c/d/e/f/) (gc) acgc | ecge fdde | (c/d/e/f/) (gc) acgc | ecgc Gcce |
(c/d/e/f/) (gc) acgc | fdec (B/A/B/c/) (de) | cAEC FAG_B | Aagf ec"^Fine."c |]

% newpage
%%sep 2 1 500

